X:1
T:Weg, Venus, weg
T:Weg, Venus, weg
T:Johann Nauwach (ca 1595-1630)
T:Source : Teutscher Villanellen---Erster Theil---Freiburg---G.Hoffman---1627. Editor : André Vierendeels (20/04/15).
T:(Aria Passeggiata)
C:Johann Nauwach
C:(ca 1595-1630)
%%score [ 1 2 ] 3
L:1/8
Q:1/4=70
M:4/4
K:F
V:1 treble nm="Cantus 1" snm="C 1"
V:2 treble nm="Cantus 2" snm="C 2"
V:3 bass nm="BC" snm="BC"
V:1
 z4 z2 Bc | d3 c B2 AB | c2 B2 A3 G | G4 z4 | F/G/A/G/ A/F/G/A/ B4- | B2 c2 c3 c | B4 z2 dc | %7
w: Weg, _|Ve- nus, weg du _|Pest der Jun- gend-|zeit,|ich _ _ _ _ _ _ _ selbst|_ ver- ges- se|mein, ich _|
 B3 c d4- | d c/d/ _e/d/c/B/ A/B/c/B/ A/G/^F/E/ | ^F D/E/ F/G/A/B/ c2 B/4A/4B/c/B/ | A3 G G4 | %11
w: wil jetzt gehn|_ den _ _ _ _ _ _ _ _ _ _ _ _ _|_ Lauff _ _ _ _ _ _ der _ _ _ _|E- wig- keit|
 z2 A2 B/A/B/G/ A/B/c/B/ | c/A/B/c/ d2 B4 | ^c2 d4 c2 | d4 z2 c/4B/4c/d | B/A/B/c/ d/c/d/B/ c3 B | %16
w: und auff _ _ _ _ _ _ _|_ _ _ _ _ der|Süs- * sen|Pein ver- * * wir-|ten _ _ _ bahn _ _ _ nicht wal-|
 c2 d2 _e3 d/e/ | f/_e/d/c/ B/A/G/A/ B/c/d/e/ fd | c2 AB c2 d2 | _ed cB A2 A2 | %20
w: len, die Ju- gend _|_ _ _ _ _ _ _ _ _ _ _ _ ist mein|Ziel,- A- * ste- ri-|e _ samt _ al- len|
 B/c/d/c/ d/B/c/B/ c/A/B/A/ B/G/A/B/ | c/F/G/A/ B/c/d/B/ c/d/_e/d/ c/B/A/f/ | %22
w: mag _ _ _ _ _ _ _ _ _ _ _ _ _ _ _|_ _ _ _ _ _ _ _ _ _ _ _ _ _ _ _|
 _e/d/c/B/ A/B/ c/B/ A3 G | !fermata!G8 |] %24
w: blei- * * * * * ben _ wer sie|wil.|
V:2
 z4 z2 dc | B3 A G2 FG | A2 G2 ^F3 F | G4 A/B/c/B/ c/A/B/c/ | d6 c2 | B6 A2 | B4 z2 Bc | d3 c B4- | %8
w: Weg, _|Ve- nus, weg du _|Pest der Ju- gend-|zeit, ich _ _ _ _ _ _ _|selbst ver-|ges- se|mein, ich _|wil jetzt gehn|
 B A/B/ c/B/A/G/ F/G/A/B/ c/d/B/c/ | A2 D/E/^F/G/ A2 G/4F/4G/A/G/ | ^F G2 F G4 | %11
w: _ den _ _ _ _ _ _ _ _ _ _ _ _ _|_ Lauff _ _ _ _ der _ _ _ _|E- * wig- keit|
"^b" z2 F2 G/F/G/E/ F/G/A/G/ | A/F/G/A/ B2 D4 | E6 E2 | D4 z2 F/4D/4E/F | G/F/G/A/ B/A/B/G/ A3 G | %16
w: und auff _ _ _ _ _ _ _|_ _ _ _ _ der|Süs- sen|Pein ver- * * wir-|ten _ _ _ bahn _ _ _ nicht wal-|
 A2 =B2 c4 | d/_e/f/e/ d/c/B/A/ G/A/B/c/ dG | A2 FG A2 B2 | cB AG ^F2 F2 | %20
w: len, die Ju-|gend _ _ _ _ _ _ _ _ _ _ _ ist mein|Ziel, A- * ste- ri-|e _ samt _ al- le|
 d/c/B/A/ B/G/A/G/ A/F/G/F/ G/E/F/G/ | A/D/E/F/ G/A/B/G/ A/B/c/B/ A/G/F/d/ | %22
w: mag _ _ _ _ _ _ _ _ _ _ _ _ _ _ _|_ _ _ _ _ _ _ _ _ _ _ _ _ _ _ _|
"^-natural" c/B/A/G/ F/E/ F/G/ ^F3 F | !fermata!G8 |] %24
w: blei- * * * * * ben _ wer sie|wil.|
V:3
 z4 G,,4- |"^6" G,,2 A,,2 B,,2 D,2 |"^6    5""^b""^#" C,4 D,4 | G,,2 G,2 F,4 | D,4 G,4 | _E,4 F,4 | %6
 B,,4 G,4 | G,,6 A,,2 | B,,2 _E,2 C,4 |"^#" D,6 _E,C, |"^3 4 3#" D,4 G,,2 G,2 | D,2 F,2 _E,2 D,2 | %12
 C,2 B,,2 G,,A,, B,,C, |"^3 4 3#" A,,8 | D,2 C,2 B,,2 B,2 | G,4 F,4- | F,2 E,D, C,4 | %17
 B,,4 _E,2 B,,2 | F,,4 F,4 |"^b""^#" C,4 D,4 | G,,2 G,2 F,2 _E,2 | D,4 C,2 D,2 |"^#" _E,2 C,2 D,4 | %23
 !fermata!G,,8 |] %24

